X: 49
T: No_142_Screech_Owl_Dance_Song_(b).krn
N: Derived from No_142_Screech_Owl_Dance_Song_(b).krn
%%abc-version 2.0
%%abcx-abcm2ps-target-version 5.9.1 (29 Sep 2008)
%%abc-creator hum2abc beta
%%abcx-conversion-date 2019/03/15 08:38:45
%%humdrum-veritas 2255072859
%%humdrum-veritas-data 674506299
%%linebreak <none>
%%barnumbers 0
L: 1/8
M: 5/4
K: A clef=bass
[K:clef=bass][M:5/4]C2CB,B,2A,2C3/B,/ [I:setbarnb 2]||  
[M:4/4]B,7/A,/ A,/F,3/-F,2 ||  
[M:3/4]A,A,E,2E, z ||  
[M:5/4]B,2B,A,F,2E,2F,2 ||  
[M:2/4]F,3E, | 
E,C,-C,2 | 
E,E,B,,2 | 
B,,2z3/ B,,/ | 
E,4 | 
F,E,E,2 ||  
[M:3/4]E,4z3/ B,,/ ||  
[M:2/4]E,4 ||  
[M:3/4]F,E,E,2E, z :|]  



